file/beko.svg

<?xml version="1.0" encoding="UTF-8" standalone="no"?>
<!DOCTYPE svg PUBLIC "-//W3C//DTD SVG 1.1//EN" "http://www.w3.org/Graphics/SVG/1.1/DTD/svg11.dtd">
<svg width="100%" height="100%" viewBox="0 0 560 400" version="1.1" xmlns="http://www.w3.org/2000/svg" xmlns:xlink="http://www.w3.org/1999/xlink" xml:space="preserve" xmlns:serif="http://www.serif.com/" style="fill-rule:evenodd;clip-rule:evenodd;stroke-linejoin:round;stroke-miterlimit:1.41421;">
    <g transform="matrix(2.13967,0,0.037405,2.14293,-204.438,-159.906)">
        <path d="M239.84,121.375L239.84,150.715L250.91,133.885L267.29,133.885L251.18,153.145L269.09,174.385L252.8,174.385L239.84,155.575L239.84,174.385L227.24,174.385L227.24,121.285L239.84,121.285L239.84,121.375ZM213.11,149.635C213.11,146.575 211.76,141.445 206,141.445C200.69,141.445 198.53,146.215 198.26,149.635L213.11,149.635ZM206.81,133.075C219.86,133.075 224.81,143.245 224.81,153.235C224.81,155.395 224.54,157.285 224.36,158.185L198.26,158.185C198.71,163.405 203.84,165.925 209.69,165.925C214.01,165.925 217.43,165.385 220.85,164.305L222.47,172.855C218.33,174.475 213.29,175.375 207.8,175.375C194.03,175.375 186.2,167.455 186.2,154.765C186.29,144.415 192.68,133.075 206.81,133.075M163.43,166.285C168.29,166.285 171.44,161.425 171.44,154.135C171.44,148.105 169.1,141.985 163.43,141.985C157.85,141.985 155.51,147.295 155.15,152.875L155.15,155.575C155.6,161.785 158.39,166.285 163.43,166.285M163.79,133.075C176.21,133.075 184.49,141.625 184.49,153.775C184.49,168.625 173.96,175.375 163.16,175.375C151.64,175.375 142.73,167.995 142.19,155.575L142.19,121.375L155.24,121.375L155.24,134.425C157.76,133.525 160.64,133.075 163.79,133.075M284.84,166.285C289.7,166.285 292.85,161.425 292.85,154.135C292.85,148.105 290.51,141.985 284.84,141.985C278.81,141.985 276.56,148.195 276.56,154.135C276.56,161.065 279.44,166.285 284.84,166.285M285.11,133.075C297.53,133.075 305.81,141.625 305.81,153.775C305.81,168.625 295.28,175.375 284.48,175.375C272.6,175.375 263.51,167.635 263.51,154.495C263.51,141.445 272.15,133.075 285.11,133.075M142.19,201.925L142.19,214.615L301.22,192.295L301.22,179.605L142.19,201.925Z" style="fill:rgb(0,131,190);fill-rule:nonzero;"/>
    </g>
</svg>

<svg clip-rule="evenodd" fill-rule="evenodd" stroke-linejoin="round" stroke-miterlimit="1.41421" viewBox="0 0 560 400" xmlns="http://www.w3.org/2000/svg"><path d="m239.84 121.375v29.34l11.07-16.83h16.38l-16.11 19.26 17.91 21.24h-16.29l-12.96-18.81v18.81h-12.6v-53.1h12.6zm-26.73 28.26c0-3.06-1.35-8.19-7.11-8.19-5.31 0-7.47 4.77-7.74 8.19zm-6.3-16.56c13.05 0 18 10.17 18 20.16 0 2.16-.27 4.05-.45 4.95h-26.1c.45 5.22 5.58 7.74 11.43 7.74 4.32 0 7.74-.54 11.16-1.62l1.62 8.55c-4.14 1.62-9.18 2.52-14.67 2.52-13.77 0-21.6-7.92-21.6-20.61.09-10.35 6.48-21.69 20.61-21.69m-43.38 33.21c4.86 0 8.01-4.86 8.01-12.15 0-6.03-2.34-12.15-8.01-12.15-5.58 0-7.92 5.31-8.28 10.89v2.7c.45 6.21 3.24 10.71 8.28 10.71m.36-33.21c12.42 0 20.7 8.55 20.7 20.7 0 14.85-10.53 21.6-21.33 21.6-11.52 0-20.43-7.38-20.97-19.8v-34.2h13.05v13.05c2.52-.9 5.4-1.35 8.55-1.35m121.05 33.21c4.86 0 8.01-4.86 8.01-12.15 0-6.03-2.34-12.15-8.01-12.15-6.03 0-8.28 6.21-8.28 12.15 0 6.93 2.88 12.15 8.28 12.15m.27-33.21c12.42 0 20.7 8.55 20.7 20.7 0 14.85-10.53 21.6-21.33 21.6-11.88 0-20.97-7.74-20.97-20.88 0-13.05 8.64-21.42 21.6-21.42m-142.92 68.85v12.69l159.03-22.32v-12.69z" fill="#0083be" fill-rule="nonzero" transform="matrix(2.13967 0 .037405 2.14293 -204.438 -159.906)"/></svg>
